X:45
%%scale .7
%%measurenb 0.
T:Tarbolton/ Longford Collector/ Sailor's Bonnet or Salamanca
C:A set mentioned in Comhaltes circles - Salamanca is for DN as Sailor's Bonnet is part of another set there
T: The Tarbolton
R: reel
M: 4/4
L: 1/8
K: Edor
D|Eeed e2 BA|GBAF GFEF|Dddc d2 AF|GBAG FDDF|
Eeed efge|fedf edBA|GABG FGA=c|BGAF GE E :|
|gfef (3gfe be|gebe gfef|d2 fd adfd|ABAG FDDF|
(3GGG BG (3FFF AF|Eeef gfed|B2 dB AGFA|BGAF GE E :|
T: Longford Collector, The
R: reel
M: 4/4
L: 1/8
K: Gmaj
|:G3A Bcdg|e~B3 eBdB|~G3A B2dB|ABBA GEDE|
~G3A Bcdg|e~B3 d2ef|~g3f gedB|1ABBA GEDE:|2ABBA GEED|:
~g3f gedg|e~B3 d2ef|~g2gf gedB|ABBA GEED|
~g3f gedg|e~B3 d2ef|gbaf gedB|1ABBA GEED:|2ABBA GEDE|
T: Sailor's Bonnet, The
M: 4/4
L: 1/8
R: reel
K: Dmaj
||:A2 FA df f2|dfef dB B2| A2 FA dfec| dBAF ADD2 :|
|:a3 a afef|afef dB B2|fb b/b/b bafa|bfaf fee2|
bf3 afed|afef dB B2|A2 FA dfec |dBAF ADD2 :|
T:Salamanca, The
M:4/4
L:1/8
K:D
d3|:c|AD F/E/D AD F/E/D|Adcd fedc|BEE2 BEE2|B/c/d ed Bdeg|
fBB2 fBB2|f2ef dfag|fdec dAAG|FAEA D3:|
a|:afdf gbeg|fdcd BAFB|Addc defg|a2 gb a2 fg|
a3f g3e|f3e dfag|fdec dAAG|FAEA D3:|
%%scale .7

